icons/svg/glassdoor.svg

﻿<?xml version="1.0" encoding="utf-8"?>
<!DOCTYPE svg PUBLIC "-//W3C//DTD SVG 1.1//EN" "http://www.w3.org/Graphics/SVG/1.1/DTD/svg11.dtd">
<svg xmlns="http://www.w3.org/2000/svg" xmlns:xlink="http://www.w3.org/1999/xlink" version="1.1" baseProfile="full" width="24" height="24" viewBox="0 0 24.00 24.00" enable-background="new 0 0 24.00 24.00" xml:space="preserve">
	<path fill="#000000" fill-opacity="1" stroke-width="1.33333" stroke-linejoin="miter" d="M 18,6L 16,6L 16,15C 16,16 15.8227,16.6401 15,16.9472L 9.5,19L 9.5,6C 9.5,5.3035 9.74338,4.1008 11,4.2376L 18,5L 18,3.7888L 9,2.1056C 8.64184,2.0386 8.35854,2 8,2C 6.72156,2 6,2.7836 6,4L 6,20.3696C 6,21.9476 7.37003,22.2578 8,22L 17,18.3168C 18,17.9076 18,17 18,16L 18,6 Z "/>
</svg>

<svg xmlns="http://www.w3.org/2000/svg" version="1.1" baseProfile="full" width="24" height="24" viewBox="0 0 24.00 24.00" xml:space="preserve"><path fill="#000" fill-opacity="1" stroke-width="1.333" stroke-linejoin="miter" d="M18 6h-2v9c0 1-.177 1.64-1 1.947L9.5 19V6c0-.697.243-1.9 1.5-1.762L18 5V3.79L9 2.105C8.642 2.04 8.36 2 8 2c-1.278 0-2 .784-2 2v16.37c0 1.578 1.37 1.888 2 1.63l9-3.683c1-.41 1-1.317 1-2.317V6z"/></svg>
